X:4938
T:Paddy Fahys reel (number 5)
O:england
M:4/4
L:1/8
C:Paddy Fahy
K:G
B |: AGEG DG,B,D | BAGA BedB | BAGE B,DG,D | DA,~A,2 DEFD |
~E2DE GEDB, | D3E DG,B,D | EDEG DEGA | BdAB G3 B :|
|: dG~G2 EGDC | B,DGB dGBd | ec~c2 AcFA | DAFA fedc |
dG~G2 EGDC | B,DGB dGBd | ecGc  ecge | dBcA G3 B :|


